styles/2/Numix/64/actions/orange-document-open-recent.svg

<?xml version="1.0" encoding="UTF-8" standalone="no"?>
<svg
   xmlns:dc="http://purl.org/dc/elements/1.1/"
   xmlns:cc="http://creativecommons.org/ns#"
   xmlns:rdf="http://www.w3.org/1999/02/22-rdf-syntax-ns#"
   xmlns:svg="http://www.w3.org/2000/svg"
   xmlns="http://www.w3.org/2000/svg"
   xmlns:sodipodi="http://sodipodi.sourceforge.net/DTD/sodipodi-0.dtd"
   xmlns:inkscape="http://www.inkscape.org/namespaces/inkscape"
   width="64"
   height="64"
   viewBox="0 0 64 64"
   id="svg2"
   version="1.1"
   inkscape:version="0.91 r"
   sodipodi:docname="orange-document-open-recent.svg">
  <metadata
     id="metadata16">
    <rdf:RDF>
      <cc:Work
         rdf:about="">
        <dc:format>image/svg+xml</dc:format>
        <dc:type
           rdf:resource="http://purl.org/dc/dcmitype/StillImage" />
        <dc:title />
      </cc:Work>
    </rdf:RDF>
  </metadata>
  <defs
     id="defs14" />
  <sodipodi:namedview
     pagecolor="#ffffff"
     bordercolor="#666666"
     borderopacity="1"
     objecttolerance="10"
     gridtolerance="10"
     guidetolerance="10"
     inkscape:pageopacity="0"
     inkscape:pageshadow="2"
     inkscape:window-width="1366"
     inkscape:window-height="747"
     id="namedview12"
     showgrid="true"
     inkscape:zoom="3.6875"
     inkscape:cx="67.55344"
     inkscape:cy="41.381884"
     inkscape:window-x="0"
     inkscape:window-y="21"
     inkscape:window-maximized="1"
     inkscape:current-layer="svg2">
    <inkscape:grid
       type="xygrid"
       id="grid3002" />
  </sodipodi:namedview>
  <path
     style="fill:#f57c00;fill-opacity:1;stroke:none"
     d="M 9,8.0000001 C 7.536083,8.0000001 6,9.5112225 6,11 l 0,13 -3,0 c -1.470099,0 -3,1.49533 -3,3 l 0,26 c 0,2 1,3 3,3 l 58,0 c 1.567614,0 3,-1.358342 3,-3 l 0,-21 c 0,-1.504928 -1.455038,-3 -3,-3 l -3,0 0,-18 C 58,9.5388439 56.546781,8.0000001 55,8.0000001 Z"
     id="path6-8"
     inkscape:connector-curvature="0"
     sodipodi:nodetypes="ssccssssscccsss" />
  <path
     inkscape:connector-curvature="0"
     style="fill:#000000;fill-opacity:0.32156863;stroke:none"
     d="M 9,8.0000001 C 7.536083,8.0000001 6,9.5112225 6,11 l 0,13 -3,0 c -1.470099,0 -3,1.49533 -3,3 l 0,26 c 0,2 1,3 3,3 l 58,0 c 1.567614,0 3,-1.358342 3,-3 l 0,-21 c 0,-1.504928 -1.458278,-3.100004 -3,-3 l -3,0 0,-18 C 58,9.5388439 56.546781,8.0000001 55,8.0000001 Z M 3,26 37,26 c 0.590175,0 1,0.51477 1,1 l 0,4 23,0 c 0.505551,0 1,0.508742 1,1 l 0,21 c 0,0.521292 -0.478766,1 -1,1 L 3,54 C 2.535705,54 2,53.603654 2,53 L 2,27 c 0,-0.492405 0.516529,-1 1,-1 z"
     id="path3778"
     sodipodi:nodetypes="sscsssssssscsssssscssssssss" />
  <path
     style="fill:#ffffff"
     d="m 14,12 36,0 0,12 -36,0 z"
     id="path6"
     inkscape:connector-curvature="0" />
  <path
     style="fill:#cccccc"
     inkscape:connector-curvature="0"
     id="path16"
     d="m 18,23 28,0 0,1 -28,0 z" />
  <path
     style="fill:#cccccc"
     inkscape:connector-curvature="0"
     id="path18"
     d="m 18,19 28,0 0,2 -28,0 z" />
  <path
     style="fill:#cccccc"
     inkscape:connector-curvature="0"
     id="path20"
     d="m 18,15 28,0 0,2 -28,0 z" />
  <rect
     style="fill:#ffffff;fill-opacity:1;fill-rule:evenodd;stroke:none"
     id="rect3022"
     width="10"
     height="5"
     x="40"
     y="24" />
  <rect
     style="fill:#cccccc;fill-opacity:1;fill-rule:evenodd;stroke:none"
     id="rect3024"
     width="6"
     height="1"
     x="40"
     y="24" />
  <path
     style="fill:#ffffff;fill-opacity:1;stroke:none"
     d="m 38,24 c 1,0 2,1 2,2 l 0,-2 z"
     id="path3026"
     inkscape:connector-curvature="0"
     sodipodi:nodetypes="cccc" />
  <path
     style="fill:#cccccc;fill-opacity:1;fill-rule:evenodd;stroke:none"
     d="m 38,24 c 0.648897,0 1.307926,0.431095 1.683594,1 L 40,25 40,24 Z"
     id="rect3796"
     inkscape:connector-curvature="0"
     sodipodi:nodetypes="ccccc" />
  <rect
     style="fill:#cccccc;fill-opacity:1;fill-rule:evenodd;stroke:none"
     id="rect3801"
     width="6"
     height="2"
     x="40"
     y="27" />
  <path
     style="fill:#859900;fill-rule:evenodd"
     d="M 63.996094 48 C 64.113281 53.675781 61.089844 58.972656 56.09375 61.847656 C 51.09375 64.71875 44.902344 64.71875 39.90625 61.847656 C 34.910156 58.972656 31.886719 53.675781 32.003906 48 C 31.886719 42.324219 34.910156 37.027344 39.90625 34.15625 C 44.902344 31.28125 51.09375 31.28125 56.09375 34.15625 C 61.089844 37.027344 64.113281 42.324219 63.996094 48 Z "
     id="path8" />
  <path
     style="fill:#fff"
     d="M 56.75 37.941406 C 56.410156 38.0625 56.125 38.289062 55.929688 38.589844 L 47.210938 47.03125 L 41.769531 41.835938 C 41.550781 41.113281 40.867188 40.636719 40.109375 40.675781 C 39.351562 40.714844 38.71875 41.265625 38.582031 42.007812 C 38.449219 42.746094 38.84375 43.480469 39.539062 43.78125 L 46.09375 50.277344 C 46.722656 50.851562 47.695312 50.851562 48.324219 50.277344 L 58.160156 40.535156 C 58.542969 40.03125 58.597656 39.347656 58.292969 38.792969 C 57.988281 38.234375 57.386719 37.902344 56.75 37.941406 Z "
     id="path10" />
</svg>

<svg xmlns="http://www.w3.org/2000/svg" viewBox="0 0 64 64">
 <path d="m 9 8 c -1.464 0 -3 1.511 -3 3 l 0 13 -3 0 c -1.47 0 -3 1.495 -3 3 l 0 26 c 0 2 1 3 3 3 l 58 0 c 1.568 0 3 -1.358 3 -3 l 0 -21 c 0 -1.505 -1.455 -3 -3 -3 l -3 0 0 -18 c 0 -1.461 -1.453 -3 -3 -3" style="fill:#f57c00;fill-opacity:1;stroke:none"/>
 <path d="m 9 8 c -1.464 0 -3 1.511 -3 3 l 0 13 -3 0 c -1.47 0 -3 1.495 -3 3 l 0 26 c 0 2 1 3 3 3 l 58 0 c 1.568 0 3 -1.358 3 -3 l 0 -21 c 0 -1.505 -1.458 -3.1 -3 -3 l -3 0 0 -18 c 0 -1.461 -1.453 -3 -3 -3 m -52 18 34 0 c 0.59 0 1 0.515 1 1 l 0 4 23 0 c 0.506 0 1 0.509 1 1 l 0 21 c 0 0.521 -0.479 1 -1 1 l -58 0 c -0.464 0 -1 -0.396 -1 -1 l 0 -26 c 0 -0.492 0.517 -1 1 -1 z" style="fill:#000;fill-opacity:0.322;stroke:none"/>
 <path d="m 14 12 36 0 0 12 -36 0 z" style="fill:#fff"/>
 <path d="m 18 23 28 0 0 1 -28 0 z" style="fill:#ccc"/>
 <path d="m 18 19 28 0 0 2 -28 0 z" style="fill:#ccc"/>
 <path d="m 18 15 28 0 0 2 -28 0 z" style="fill:#ccc"/>
 <rect width="10" height="5" x="40" y="24" style="fill:#fff;fill-opacity:1;stroke:none;fill-rule:evenodd"/>
 <rect width="6" height="1" x="40" y="24" style="fill:#ccc;fill-opacity:1;stroke:none;fill-rule:evenodd"/>
 <path d="m 38 24 c 1 0 2 1 2 2 l 0 -2 z" style="fill:#fff;fill-opacity:1;stroke:none"/>
 <path d="m 38 24 c 0.649 0 1.308 0.431 1.684 1 l 0.316 0 0 -1" style="fill:#ccc;fill-opacity:1;stroke:none;fill-rule:evenodd"/>
 <rect width="6" height="2" x="40" y="27" style="fill:#ccc;fill-opacity:1;stroke:none;fill-rule:evenodd"/>
 <path d="m 63.996 48 c 0.117 5.676 -2.906 10.973 -7.902 13.848 c -5 2.871 -11.191 2.871 -16.188 0 c -4.996 -2.875 -8.02 -8.172 -7.902 -13.848 c -0.117 -5.676 2.906 -10.973 7.902 -13.844 c 4.996 -2.875 11.188 -2.875 16.188 0 c 4.996 2.871 8.02 8.168 7.902 13.844 Z" style="fill:#859900;fill-rule:evenodd"/>
 <path d="m 56.75 37.941 c -0.34 0.121 -0.625 0.348 -0.82 0.648 l -8.719 8.441 l -5.441 -5.195 c -0.219 -0.723 -0.902 -1.199 -1.66 -1.16 c -0.758 0.039 -1.391 0.59 -1.527 1.332 c -0.133 0.738 0.262 1.473 0.957 1.773 l 6.555 6.496 c 0.629 0.574 1.602 0.574 2.23 0 l 9.836 -9.742 c 0.383 -0.504 0.438 -1.188 0.133 -1.742 c -0.305 -0.559 -0.906 -0.891 -1.543 -0.852 Z" style="fill:#fff"/>
</svg>
